assets/icons/home.svg

<svg width="20" height="20" viewBox="0 0 20 20" fill="none" xmlns="http://www.w3.org/2000/svg">
<path d="M7.48504 17.0136H4.74337C3.73337 17.0136 2.91504 16.1952 2.91504 15.1852V9.80691C2.91565 9.4151 2.99999 9.02794 3.16239 8.67137C3.3248 8.3148 3.56152 7.99705 3.85671 7.73941L8.79837 3.43524C9.13113 3.14576 9.55732 2.98633 9.99837 2.98633C10.4394 2.98633 10.8656 3.14576 11.1984 3.43524L16.14 7.74024C16.4351 7.99779 16.6718 8.31541 16.8342 8.67182C16.9966 9.02824 17.081 9.41524 17.0817 9.80691V15.1852C17.0817 15.67 16.8892 16.1349 16.5465 16.4778C16.2038 16.8206 15.739 17.0134 15.2542 17.0136H12.74V11.5294C12.74 10.7727 12.1267 10.1586 11.3692 10.1586H8.85671C8.09921 10.1586 7.48587 10.7727 7.48587 11.5294L7.48504 17.0136ZM7.48504 17.0136H12.7409" stroke="currentColor" stroke-width="1.25" stroke-linejoin="round"/>
</svg>

<svg xmlns="http://www.w3.org/2000/svg" width="20" height="20" fill="none" viewBox="0 0 20 20"><path stroke="currentColor" stroke-linejoin="round" stroke-width="1.25" d="M7.485 17.014H4.743a1.83 1.83 0 0 1-1.828-1.829V9.807a2.75 2.75 0 0 1 .942-2.068l4.941-4.304a1.83 1.83 0 0 1 2.4 0L16.14 7.74a2.75 2.75 0 0 1 .942 2.067v5.378a1.83 1.83 0 0 1-1.828 1.829H12.74v-5.485a1.37 1.37 0 0 0-1.37-1.37H8.856a1.37 1.37 0 0 0-1.371 1.37zm0 0h5.256"/></svg>
